icons/lightbulb-on.svg

﻿<?xml version="1.0" encoding="utf-8"?>
<!DOCTYPE svg PUBLIC "-//W3C//DTD SVG 1.1//EN" "http://www.w3.org/Graphics/SVG/1.1/DTD/svg11.dtd">
<svg xmlns="http://www.w3.org/2000/svg" xmlns:xlink="http://www.w3.org/1999/xlink" version="1.1" baseProfile="full" width="24" height="24" viewBox="0 0 24.00 24.00" enable-background="new 0 0 24.00 24.00" xml:space="preserve">
	<path fill="#000000" fill-opacity="1" stroke-width="0.2" stroke-linejoin="miter" d="M 12,5.99999C 15.3137,5.99999 18,8.68629 18,12C 18,14.2208 16.7934,16.1599 15,17.1973L 15,19C 15,19.5523 14.5523,20 14,20L 10,20C 9.44771,20 9,19.5523 9,19L 9,17.1973C 7.20659,16.1599 6,14.2208 6,12C 6,8.68629 8.68629,5.99999 12,5.99999 Z M 14,21L 14,22C 14,22.5523 13.5523,23 13,23L 11,23C 10.4477,23 9.99999,22.5523 9.99999,22L 9.99999,21L 14,21 Z M 20,11L 23,11L 23,13L 20,13L 20,11 Z M 1,11L 4,11L 4,13L 1,13L 1,11 Z M 12.9923,0.998644L 12.9923,3.99864L 10.9923,3.99864L 10.9923,0.998644L 12.9923,0.998644 Z M 4.9248,3.51564L 7.04611,5.63696L 5.6319,7.05117L 3.51058,4.92985L 4.9248,3.51564 Z M 16.952,5.63247L 19.0733,3.51115L 20.4876,4.92536L 18.3662,7.04668L 16.952,5.63247 Z "/>
</svg>

<svg xmlns="http://www.w3.org/2000/svg" width="24" height="24" baseProfile="full" viewBox="0 0 24 24"><path d="M12 6a6 6 0 013 11.197V19a1 1 0 01-1 1h-4a1 1 0 01-1-1v-1.803A6 6 0 0112 6zm2 15v1a1 1 0 01-1 1h-2a1 1 0 01-1-1v-1h4zm6-10h3v2h-3v-2zM1 11h3v2H1v-2zM12.992.999v3h-2v-3h2zM4.925 3.516l2.121 2.121-1.414 1.414L3.51 4.93l1.414-1.414zm12.027 2.116l2.121-2.12 1.415 1.413-2.122 2.122-1.414-1.415z"/></svg>
